src/images_karasa_jaga_svg/cmd/32/ru/underline.svg

<svg height="32" viewBox="0 0 8.4666665 8.466667" width="32" xmlns="http://www.w3.org/2000/svg" xmlns:xlink="http://www.w3.org/1999/xlink"><linearGradient id="a" gradientTransform="matrix(1.3125088 0 0 1.3125089 -4.413259 -357.73477)" gradientUnits="userSpaceOnUse" x1="18.708687" x2="18.753332" y1="292.76666" y2="275.57822"><stop offset="0" stop-color="#555"/><stop offset="1"/></linearGradient><linearGradient id="b" gradientUnits="userSpaceOnUse" x1="16.933332" x2="16.933332" y1="2.116668" y2="44.104801"><stop offset="0" stop-color="#3b3e22"/><stop offset="1" stop-color="#454545" stop-opacity="0"/></linearGradient><g transform="scale(.25)"><path d="m11.929171 12.52917q0 1.604378.97235 2.673963 1.020968 1.020968 2.771198 1.020968 1.069586 0 2.285024-.38894 1.264055-.38894 1.9447-.77788l.680645-.340323v-6.0771893q0-1.8960831-.632027-2.6253459-.58341-.7292627-2.479494-.9237328v-.7292627h10.306914v.7292627q-1.944701.2430876-2.528111.9237328-.58341.6320277-.58341 2.6253459v12.6405543q0 2.528111.58341 3.257373.58341.729263 2.528111.972351v.729262h-10.306914v-.729262q1.993319-.243088 2.528111-.923733.58341-.680645.58341-3.305991v-5.299309q-2.72258 1.701613-6.077189 1.701613-.97235 0-1.993318-.19447-1.020968-.243088-2.139171-.729263-1.1182027-.534793-1.8474654-1.604378-.6806452-1.069586-.6806452-2.528111v-3.9866363q-.0486175-2.0419357-.6320277-2.6739634-.5834102-.6320277-2.4794933-.8751153v-.7292627h10.3069136v.7292627q-1.896083.2430876-2.528111.9237328-.58341.6320277-.58341 2.6253459z" fill="url(#a)" stroke-width="1.154997" transform="scale(1.0311756 .96976693)"/><rect fill="#0e0e0e" height="2.116674" rx=".472075" ry=".9247" width="27.516666" x="3.175" y="28.574993"/><path d="m19.982422 17.423828v.07227c4.258568.626672 7.45473 1.557553 9.255859 3.392578 2.059011 2.097758 2.739433 5.622764 2.869141 10.746094a1.5294064 1.438327 0 0 1 0 .03516v14.61132c0 3.33225.807693 6.109436 2.398437 8.46875 1.751366 2.409836 3.918707 4.182107 6.56836 5.376953.0052.0023.01045.0035.01563.0059 2.799533 1.141473 5.467877 1.988977 7.992187 2.556641 2.555131.45597 5.039773.6875 7.453125.6875 8.456816 0 16.046007-2.004098 22.88086-6.021484a1.5294064 1.438327 0 0 1 2.33789 1.216797v9.710937a64.492845 32.602184 0 0 0 12.847651-1.640666v-34.972656c0-4.999307.623651-8.479527 2.671876-10.580078 1.804573-1.96239 5.088602-2.949301 9.462892-3.585938v-.08008h-37.117189v.07227c4.270653.559264 7.536934 1.559268 9.310547 3.628906 2.056654 2.249658 2.824218 5.76743 2.824218 10.544922v22.271484a1.5294064 1.438327 0 0 1 -.845703 1.28711l-2.65625 1.246093.07617-.04297c-1.926475 1.035286-4.539698 2.011378-7.878906 2.978515-3.282354.987803-6.407076 1.496094-9.371094 1.496094-4.845318 0-8.912529-1.381807-11.873047-4.166016a1.5294064 1.438327 0 0 1 -.05469-.05078c-2.782178-2.878147-4.185546-6.554501-4.185542-10.765626v-14.253906c0-5.010003.610017-8.500901 2.671875-10.601563a1.5294064 1.438327 0 0 1 .0078-.0078c1.88535-1.909464 5.154187-2.912862 9.445313-3.556641v-.08008z" fill="url(#b)" stroke-width="4.365344" transform="scale(.26458334)"/></g></svg>

<?xml version="1.0" encoding="UTF-8" standalone="no"?>
<svg
   xmlns:dc="http://purl.org/dc/elements/1.1/"
   xmlns:cc="http://creativecommons.org/ns#"
   xmlns:rdf="http://www.w3.org/1999/02/22-rdf-syntax-ns#"
   xmlns:svg="http://www.w3.org/2000/svg"
   xmlns="http://www.w3.org/2000/svg"
   xmlns:xlink="http://www.w3.org/1999/xlink"
   xmlns:sodipodi="http://sodipodi.sourceforge.net/DTD/sodipodi-0.dtd"
   xmlns:inkscape="http://www.inkscape.org/namespaces/inkscape"
   height="128"
   viewBox="0 0 33.866666 33.866668"
   width="128"
   version="1.1"
   id="svg20"
   sodipodi:docname="underline.svg"
   inkscape:version="0.92.4 (unknown)"
   inkscape:export-filename="/home/rizmut/Dokumen/Rizmut/Github/libreoffice-style-karasa-jaga/build/images_karasa_jaga/cmd/32/ru/underline.png"
   inkscape:export-xdpi="24"
   inkscape:export-ydpi="24">
  <metadata
     id="metadata26">
    <rdf:RDF>
      <cc:Work
         rdf:about="">
        <dc:format>image/svg+xml</dc:format>
        <dc:type
           rdf:resource="http://purl.org/dc/dcmitype/StillImage" />
        <dc:title></dc:title>
      </cc:Work>
    </rdf:RDF>
  </metadata>
  <defs
     id="defs24">
    <linearGradient
       inkscape:collect="always"
       xlink:href="#a"
       id="linearGradient833"
       gradientUnits="userSpaceOnUse"
       gradientTransform="matrix(1.3125088,0,0,1.3125089,-4.4132593,-357.73477)"
       x1="18.708686"
       y1="292.76666"
       x2="18.753332"
       y2="275.57822" />
    <linearGradient
       inkscape:collect="always"
       xlink:href="#b"
       id="linearGradient850"
       x1="63.999996"
       y1="8.0000048"
       x2="63.999996"
       y2="56.000004"
       gradientUnits="userSpaceOnUse" />
  </defs>
  <sodipodi:namedview
     pagecolor="#ffffff"
     bordercolor="#666666"
     borderopacity="1"
     objecttolerance="10"
     gridtolerance="10"
     guidetolerance="10"
     inkscape:pageopacity="0"
     inkscape:pageshadow="2"
     inkscape:window-width="1366"
     inkscape:window-height="706"
     id="namedview22"
     showgrid="true"
     inkscape:zoom="1.3037282"
     inkscape:cx="-60.282182"
     inkscape:cy="6.5136793"
     inkscape:window-x="0"
     inkscape:window-y="0"
     inkscape:window-maximized="1"
     inkscape:current-layer="svg20">
    <inkscape:grid
       type="xygrid"
       id="grid825"
       spacingx="1.0583333"
       spacingy="1.0583333" />
  </sodipodi:namedview>
  <linearGradient
     id="a"
     gradientUnits="userSpaceOnUse"
     x1="18.708686"
     x2="19.767019"
     y1="292.76666"
     y2="268.42499"
     gradientTransform="matrix(0.96976693,0,0,0.96976693,1.0596924,-256.77543)">
    <stop
       offset="0"
       stop-color="#555"
       id="stop2" />
    <stop
       offset="1"
       id="stop4" />
  </linearGradient>
  <linearGradient
     id="b"
     gradientUnits="userSpaceOnUse"
     x1="44.923828"
     x2="44.566963"
     y1="7.581612"
     y2="97.581612"
     gradientTransform="scale(0.26458333)">
    <stop
       offset="0"
       stop-color="#3b3e22"
       id="stop7" />
    <stop
       offset="1"
       stop-color="#454545"
       stop-opacity="0"
       id="stop9" />
  </linearGradient>
  <text
     transform="scale(1.0311756,0.96976693)"
     style="font-size:46.19987869px;font-family:sans-serif;letter-spacing:0;word-spacing:0;fill:url(#linearGradient833);stroke-width:1.15499735"
     x="4.0045156"
     y="26.239309"
     id="text831">
    <tspan
       font-size="37.041668"
       font-weight="bold"
       x="4.0045156"
       y="26.239309"
       id="tspan829"
       style="font-style:normal;font-variant:normal;font-weight:normal;font-stretch:normal;font-size:48.61751556px;font-family:FreeSerif;-inkscape-font-specification:FreeSerif;fill:url(#linearGradient833);stroke-width:1.15499735">ч</tspan>
  </text>
  <rect
     style="fill:#0e0e0e;stroke-width:1"
     id="rect13"
     y="28.574993"
     x="3.175"
     width="27.516666"
     ry="0.92470002"
     rx="0.47207496"
     height="2.1166739" />
  <path
     style="font-size:46.19987869px;font-family:sans-serif;letter-spacing:0;word-spacing:0;fill:url(#linearGradient850);stroke-width:4.36534405;fill-opacity:1"
     d="M 19.982422 17.423828 L 19.982422 17.496094 C 24.24099 18.122766 27.437152 19.053647 29.238281 20.888672 C 31.297292 22.98643 31.977714 26.511436 32.107422 31.634766 A 1.5294064 1.438327 0 0 1 32.107422 31.669922 L 32.107422 46.28125 C 32.107422 49.6135 32.915115 52.390686 34.505859 54.75 C 36.257225 57.159836 38.424566 58.932107 41.074219 60.126953 C 41.079394 60.129284 41.084668 60.130485 41.089844 60.132812 C 43.889377 61.274285 46.557721 62.121789 49.082031 62.689453 C 51.637162 63.145423 54.121804 63.376953 56.535156 63.376953 C 64.991972 63.376953 72.581163 61.372855 79.416016 57.355469 A 1.5294064 1.438327 0 0 1 81.753906 58.572266 L 81.753906 68.283203 A 64.492845 32.602184 0 0 0 94.601562 66.642578 L 94.601562 31.669922 C 94.601562 26.670615 95.225213 23.190395 97.273438 21.089844 C 99.078011 19.127454 102.36204 18.140543 106.73633 17.503906 L 106.73633 17.423828 L 69.619141 17.423828 L 69.619141 17.496094 C 73.889794 18.055358 77.156075 19.055362 78.929688 21.125 C 80.986342 23.374658 81.753906 26.89243 81.753906 31.669922 L 81.753906 53.941406 A 1.5294064 1.438327 0 0 1 80.908203 55.228516 L 78.251953 56.474609 L 78.328125 56.431641 C 76.40165 57.466927 73.788427 58.443019 70.449219 59.410156 C 67.166865 60.397959 64.042143 60.90625 61.078125 60.90625 C 56.232807 60.90625 52.165596 59.524443 49.205078 56.740234 A 1.5294064 1.438327 0 0 1 49.150391 56.689453 C 46.368208 53.811307 44.96484 50.134953 44.964844 45.923828 L 44.964844 31.669922 C 44.964844 26.659919 45.574861 23.169021 47.636719 21.068359 A 1.5294064 1.438327 0 0 1 47.644531 21.060547 C 49.529881 19.151083 52.798718 18.147685 57.089844 17.503906 L 57.089844 17.423828 L 19.982422 17.423828 z "
     transform="scale(0.26458334)"
     id="text837" />
</svg>
